X: 25974
T: May Waltz, The
R: waltz
M: 3/4
K: Aminor
E2|:A4 A2|c3 B A2|e4 cB|A4 e2|
f3 e fg|a2 g2 f2|e6-|e4 e2|
f3 e fg|a2 g2 f2|e4 cB|A4 AB|c3 B A2|
e3 d Bc|1 A6-|A4 E2:|2 A6 -|A2 B2 c2||
B4 B2|B2 c2 d2|cB A4-|A4 e2|
f3 e fg|a2 g2 f2|e6-|e4 e2|
f3 e fg|a2 g2 f2|e4 cB|A4 AB|c3 B A2|
e3 d Bc|1 A6-|A2 B2 c2:|2 A6-|A4 E2||

